;FLAVOR:Marlin
;TIME:719
;Filament used: 0.498168m
;Layer height: 0.16
;MINX:94.9
;MINY:93.32
;MINZ:0.2
;MAXX:125.1
;MAXY:126.68
;MAXZ:5.72
;Generated with Cura_SteamEngine 4.6.1
M140 S50
M105
M190 S50
M104 S200
M105
M109 S200
M82 ;absolute extrusion mode
M201 X500.00 Y500.00 Z100.00 E5000.00 ;Setup machine max acceleration
M203 X500.00 Y500.00 Z10.00 E50.00 ;Setup machine max feedrate
M204 P500.00 R1000.00 T500.00 ;Setup Print/Retract/Travel acceleration
M205 X8.00 Y8.00 Z0.40 E5.00 ;Setup Jerk
M220 S100 ;Reset Feedrate
M221 S100 ;Reset Flowrate

G28 ;Home

G92 E0 ;Reset Extruder
G1 Z2.0 F3000 ;Move Z Axis up
G1 X10.1 Y20 Z0.28 F5000.0 ;Move to start position
G1 X10.1 Y200.0 Z0.28 F1500.0 E15 ;Draw the first line
G1 X10.4 Y200.0 Z0.28 F5000.0 ;Move to side a little
G1 X10.4 Y20 Z0.28 F1500.0 E30 ;Draw the second line
G92 E0 ;Reset Extruder
G1 Z2.0 F3000 ;Move Z Axis up

G92 E0
G92 E0
G1 F2700 E-5
;LAYER_COUNT:31
;LAYER:0
M107
;MESH:GT Ring for PVC - bottom.stl
G0 F6000 X110 Y125.709 Z0.2
;TYPE:WALL-INNER
G1 F2700 E0
G1 F1200 X96.4 Y117.856 E0.52233
G1 X96.4 Y102.151 E1.04468
G1 X110.001 Y94.297 E1.56706
G1 X123.6 Y102.15 E2.08936
G1 X123.6 Y117.856 E2.61175
G1 X110 Y125.709 E3.13408
G0 F6000 X110 Y125.245
G1 F1200 X123.199 Y117.622 E3.64104
G1 X123.2 Y102.382 E4.14792
G1 X110 Y94.761 E4.65487
G1 X96.801 Y102.383 E5.16181
G1 X96.801 Y117.622 E5.66866
G1 X110 Y125.245 E6.17562
G0 F6000 X110 Y124.783
;TYPE:WALL-OUTER
G1 F1200 X122.799 Y117.391 E6.66721
G1 X122.8 Y102.613 E7.15873
G1 X110 Y95.223 E7.65032
G1 X97.201 Y102.614 E8.1419
G1 X97.201 Y117.391 E8.63338
G1 X110 Y124.783 E9.12498
G0 F6000 X110 Y125.707
;TYPE:WALL-INNER
G1 F1200 X123.599 Y117.853 E9.12763
G1 X123.6 Y102.151 E9.12952
G1 X110 Y94.299 E9.13145
G1 X96.401 Y102.152 E9.13337
G1 X96.401 Y117.853 E9.13592
G1 X110 Y125.707 E9.13923
G0 F6000 X110.2 Y126.054
G1 F1200 X110 Y126.17 E9.14692
G1 X96 Y118.087 E9.68459
G1 X96 Y101.92 E10.22231
G1 X96.056 Y101.888 E10.22446
G1 X109.801 Y93.952 E10.75234
G1 X110.001 Y93.836 E10.76003
G1 X124 Y101.919 E11.29768
G1 X124 Y118.087 E11.83543
G1 X110.2 Y126.054 E12.36542
G0 F6000 X110.047 Y126.604
;TYPE:WALL-OUTER
G1 F1200 X109.953 Y126.604 E12.36855
G1 X95.646 Y118.344 E12.91801
G1 X95.6 Y118.264 E12.92108
G1 X95.6 Y101.742 E13.47061
G1 X95.646 Y101.662 E13.47368
G1 X95.856 Y101.541 E13.48174
G1 X109.953 Y93.401 E14.02316
G1 X110.047 Y93.401 E14.02628
G1 X124.354 Y101.662 E14.57577
G1 X124.4 Y101.742 E14.57884
G1 X124.4 Y118.264 E15.12836
G1 X124.354 Y118.344 E15.13143
G1 X110.047 Y126.604 E15.68089
G0 F6000 X109.976 Y126.109
G0 X110.028 Y125.922
;MESH:NONMESH
G0 F300 X110.028 Y125.922 Z0.36
G0 F6000 X110 Y125.522
;TIME_ELAPSED:33.463887
;LAYER:1
M140 S50
M106 S85
;TYPE:WALL-INNER
;MESH:GT Ring for PVC - bottom.stl
G1 F1800 X123.439 Y117.761 E16.09383
G1 X123.44 Y102.244 E16.5067
G1 X110 Y94.484 E16.91964
G1 X96.561 Y102.245 E17.33258
G1 X96.561 Y117.761 E17.74543
G1 X110 Y125.522 E18.15836
G0 F9000 X110 Y125.06
G1 F1800 X123.039 Y117.53 E18.559
G1 X123.04 Y102.475 E18.95959
G1 X110 Y94.946 E19.36024
G1 X96.961 Y102.476 E19.76088
G1 X96.961 Y117.53 E20.16144
G1 X110 Y125.06 E20.56208
G0 F9000 X110 Y124.598
;TYPE:WALL-OUTER
G1 F1800 X122.639 Y117.299 E20.95043
G1 X122.64 Y102.706 E21.33872
G1 X110 Y95.408 E21.72708
G1 X97.361 Y102.707 E22.11543
G1 X97.361 Y117.299 E22.5037
G1 X110 Y124.598 E22.89205
G0 F9000 X109.849 Y124.857
G0 X109.965 Y125.872
;TYPE:WALL-INNER
G1 F1800 X109.852 Y125.807 E22.89552
G1 X109.84 Y125.8 E22.89588
G1 X96.401 Y118.04 E23.22756
G1 X96.271 Y117.965 E23.23125
G1 X96.259 Y117.945 E23.23187
G1 X96.24 Y117.914 E23.23284
G1 X96.239 Y117.779 E23.23643
G1 X96.239 Y117.761 E23.23686
G1 X96.239 Y102.245 E23.57004
G1 X96.239 Y102.087 E23.57394
G1 X96.248 Y102.07 E23.57442
G1 X96.262 Y102.046 E23.57512
G1 X96.4 Y101.967 E23.57935
G1 X109.839 Y94.206 E23.91157
G1 X109.978 Y94.126 E23.91552
G1 X110.007 Y94.126 E23.91625
G1 X110.026 Y94.127 E23.91673
G1 X110.161 Y94.205 E23.92088
G1 X123.6 Y101.965 E24.25359
G1 X123.734 Y102.042 E24.25739
G1 X123.756 Y102.074 E24.25843
G1 X123.76 Y102.083 E24.25869
G1 X123.761 Y102.224 E24.26244
G1 X123.761 Y102.244 E24.26292
G1 X123.761 Y117.761 E24.5956
G1 X123.761 Y117.912 E24.59932
G1 X123.749 Y117.937 E24.60001
G1 X123.728 Y117.967 E24.60093
G1 X123.615 Y118.033 E24.60442
G1 X123.601 Y118.041 E24.60484
G1 X110.161 Y125.799 E24.93756
G1 X110.035 Y125.872 E24.94112
G1 X110.002 Y125.875 E24.94195
G1 X109.965 Y125.872 E24.94288
G0 F9000 X110.004 Y126.277
G1 F1800 X109.843 Y126.264 E24.94718
G1 X109.652 Y126.154 E24.95304
G1 X95.995 Y118.268 E25.37266
G1 X95.903 Y118.138 E25.3769
G1 X95.84 Y118.001 E25.38091
G1 X95.839 Y117.779 E25.38682
G1 X95.839 Y101.998 E25.80672
G1 X95.901 Y101.865 E25.81063
G1 X95.986 Y101.744 E25.81456
G1 X96.184 Y101.629 E25.82065
G1 X109.778 Y93.781 E26.23831
G1 X109.857 Y93.735 E26.24075
G1 X109.996 Y93.723 E26.24446
G1 X110.147 Y93.736 E26.24849
G1 X124.011 Y101.741 E26.67446
G1 X124.102 Y101.87 E26.67866
G1 X124.16 Y101.996 E26.68235
G1 X124.161 Y102.224 E26.68842
G1 X124.161 Y118.002 E27.10824
G1 X124.099 Y118.135 E27.11215
G1 X124.005 Y118.269 E27.1165
G1 X123.815 Y118.379 E27.12235
G1 X110.156 Y126.264 E27.542
G1 X110.004 Y126.277 E27.54606
G0 F9000 X109.722 Y126.655
;TYPE:WALL-OUTER
G1 F1800 X109.453 Y126.501 E27.5543
G1 X95.718 Y118.57 E27.97632
G1 X95.555 Y118.338 E27.98386
G1 X95.44 Y118.09 E27.99114
G1 X95.439 Y117.779 E27.99941
G1 X95.439 Y101.91 E28.42165
G1 X95.555 Y101.662 E28.42894
G1 X95.71 Y101.442 E28.4361
G1 X95.983 Y101.283 E28.44451
G1 X109.733 Y93.345 E28.86696
G1 X110 Y93.321 E28.87409
G1 X110.268 Y93.344 E28.88125
G1 X124.289 Y101.44 E29.31205
G1 X124.446 Y101.664 E29.31933
G1 X124.56 Y101.908 E29.32649
G1 X124.561 Y102.224 E29.3349
G1 X124.561 Y118.09 E29.75707
G1 X124.445 Y118.338 E29.76435
G1 X124.283 Y118.57 E29.77188
G1 X124.015 Y118.725 E29.78012
G1 X110.279 Y126.654 E30.20213
G1 X110 Y126.679 E30.20958
G1 X109.722 Y126.655 E30.21701
G0 F9000 X109.853 Y126.236
G0 X109.94 Y126.071
;MESH:NONMESH
G0 F300 X109.94 Y126.071 Z0.52
G0 F9000 X110 Y125.338
;TIME_ELAPSED:53.438916
;LAYER:2
M106 S170
;TYPE:WALL-INNER
;MESH:GT Ring for PVC - bottom.stl
G1 F2400 X123.279 Y117.669 E30.62503
G1 X123.28 Y102.336 E31.03301
G1 X110 Y94.668 E31.44104
G1 X96.721 Y102.337 E31.84906
G1 X96.721 Y117.669 E32.25702
G1 X110 Y125.338 E32.66504
G0 F12000 X110 Y124.876
G1 F2400 X122.879 Y117.438 E33.06077
G1 X122.88 Y102.567 E33.45646
G1 X110 Y95.13 E33.8522
G1 X97.121 Y102.568 E34.24793
G1 X97.121 Y117.438 E34.64359
G1 X110 Y124.876 E35.03932
G0 F12000 X110 Y124.414
;TYPE:WALL-OUTER
G1 F2400 X122.479 Y117.207 E35.42276
G1 X122.48 Y102.798 E35.80616
G1 X110 Y95.592 E36.1896
G1 X97.521 Y102.799 E36.57304
G1 X97.521 Y117.207 E36.95641
G1 X110 Y124.414 E37.33985
G0 F12000 X109.848 Y124.672
G0 X110.192 Y125.47
G0 X110.207 Y125.648
G0 X110.406 Y125.841
;TYPE:WALL-INNER
G1 F2400 X110.005 Y125.876 E37.35056
G1 X109.589 Y125.84 E37.36167
G1 X109.562 Y125.825 E37.3625
G1 X96.49 Y118.279 E37.76411
G1 X96.253 Y117.939 E37.77514
G1 X96.079 Y117.566 E37.78609
G1 X96.079 Y102.431 E38.1888
G1 X96.251 Y102.062 E38.19964
G1 X96.481 Y101.734 E38.2103
G1 X96.508 Y101.718 E38.21113
G1 X109.603 Y94.158 E38.61346
G1 X109.996 Y94.123 E38.62396
G1 X110.396 Y94.157 E38.63464
G1 X110.429 Y94.176 E38.63565
G1 X123.519 Y101.735 E39.03786
G1 X123.745 Y102.056 E39.0483
G1 X123.762 Y102.095 E39.04943
G1 X123.921 Y102.433 E39.05937
G1 X123.921 Y117.569 E39.46211
G1 X123.75 Y117.936 E39.47289
G1 X123.513 Y118.275 E39.48389
G1 X123.49 Y118.288 E39.4846
G1 X110.406 Y125.841 E39.88658
G0 F12000 X110.442 Y126.238
G1 F2400 X110 Y126.278 E39.89839
G1 X109.469 Y126.232 E39.91257
G1 X109.364 Y126.172 E39.91579
G1 X96.213 Y118.58 E40.31983
G1 X95.904 Y118.138 E40.33418
G1 X95.68 Y117.657 E40.3483
G1 X95.679 Y117.541 E40.35139
G1 X95.679 Y102.341 E40.75583
G1 X95.901 Y101.864 E40.76983
G1 X96.204 Y101.433 E40.78385
G1 X96.308 Y101.372 E40.78706
G1 X109.479 Y93.768 E41.19173
G1 X109.567 Y93.761 E41.19408
G1 X109.96 Y93.726 E41.20457
G1 X109.998 Y93.722 E41.20559
G1 X110.074 Y93.728 E41.20762
G1 X110.52 Y93.767 E41.21953
G1 X110.628 Y93.829 E41.22284
G1 X123.795 Y101.433 E41.62742
G1 X124.095 Y101.859 E41.64128
G1 X124.126 Y101.928 E41.6433
G1 X124.32 Y102.343 E41.65549
G1 X124.321 Y102.461 E41.65863
G1 X124.321 Y117.659 E42.06302
G1 X124.099 Y118.135 E42.07699
G1 X123.79 Y118.577 E42.09134
G1 X123.689 Y118.635 E42.09444
G1 X110.53 Y126.231 E42.49872
G1 X110.442 Y126.238 E42.50107
G0 F12000 X110.656 Y126.621
;TYPE:WALL-OUTER
G1 F2400 X110 Y126.679 E42.5186
G1 X109.345 Y126.622 E42.53609
G1 X109.166 Y126.52 E42.54157
G1 X95.935 Y118.881 E42.94809
G1 X95.556 Y118.34 E42.96566
G1 X95.28 Y117.747 E42.98307
G1 X95.279 Y117.541 E42.98855
G1 X95.279 Y102.253 E43.39533
G1 X95.555 Y101.662 E43.41269
G1 X95.927 Y101.132 E43.42992
G1 X96.108 Y101.026 E43.4355
G1 X109.355 Y93.378 E43.8425
G1 X110.002 Y93.32 E43.85979
G1 X110.108 Y93.329 E43.86262
G1 X110.644 Y93.377 E43.87694
G1 X110.827 Y93.482 E43.88255
G1 X124.072 Y101.131 E44.28952
G1 X124.444 Y101.661 E44.30675
G1 X124.489 Y101.76 E44.30965
G1 X124.72 Y102.253 E44.32413
G1 X124.721 Y102.461 E44.32967
G1 X124.721 Y117.747 E44.7364
G1 X124.445 Y118.338 E44.75375
G1 X124.066 Y118.88 E44.77135
G1 X123.889 Y118.982 E44.77679
G1 X110.656 Y126.621 E45.18335
G0 F12000 X110.524 Y126.202
G0 X96.718 Y118.282
G0 X96.743 Y118.239
;TYPE:SKIN
G1 F2400 X96.457 Y117.953 E45.19411
G0 F12000 X96.561 Y117.491
G1 F2400 X96.238 Y117.169 E45.20625
G0 F12000 X96.561 Y116.925
G1 F2400 X96.238 Y116.603 E45.21838
G0 F12000 X96.561 Y116.36
G1 F2400 X96.238 Y116.037 E45.23054
G0 F12000 X96.561 Y115.794
G1 F2400 X96.238 Y115.471 E45.24269
G0 F12000 X96.561 Y115.228
G1 F2400 X96.238 Y114.906 E45.25483
G0 F12000 X96.561 Y114.663
G1 F2400 X96.238 Y114.34 E45.26698
G0 F12000 X96.561 Y114.097
G1 F2400 X96.238 Y113.774 E45.27913
G0 F12000 X96.561 Y113.531
G1 F2400 X96.238 Y113.209 E45.29127
G0 F12000 X96.561 Y112.965
G1 F2400 X96.238 Y112.643 E45.30341
G0 F12000 X96.561 Y112.4
G1 F2400 X96.238 Y112.077 E45.31556
G0 F12000 X96.561 Y111.834
G1 F2400 X96.238 Y111.512 E45.3277
G0 F12000 X96.561 Y111.268
G1 F2400 X96.238 Y110.946 E45.33983
G0 F12000 X96.561 Y110.703
G1 F2400 X96.238 Y110.38 E45.35199
G0 F12000 X96.561 Y110.137
G1 F2400 X96.238 Y109.815 E45.36412
G0 F12000 X96.561 Y109.571
G1 F2400 X96.238 Y109.249 E45.37626
G0 F12000 X96.561 Y109.006
G1 F2400 X96.238 Y108.683 E45.38841
G0 F12000 X96.561 Y108.44
G1 F2400 X96.238 Y108.118 E45.40055
G0 F12000 X96.561 Y107.874
G1 F2400 X96.238 Y107.552 E45.41268
G0 F12000 X96.561 Y107.309
G1 F2400 X96.238 Y106.986 E45.42484
G0 F12000 X96.561 Y106.743
G1 F2400 X96.238 Y106.42 E45.43699
G0 F12000 X96.561 Y106.177
G1 F2400 X96.238 Y105.855 E45.44913
G0 F12000 X96.561 Y105.612
G1 F2400 X96.238 Y105.289 E45.46128
G0 F12000 X96.561 Y105.046
G1 F2400 X96.238 Y104.723 E45.47343
G0 F12000 X96.561 Y104.48
G1 F2400 X96.238 Y104.158 E45.48557
G0 F12000 X96.561 Y103.914
G1 F2400 X96.238 Y103.592 E45.49771
G0 F12000 X96.561 Y103.349
G1 F2400 X96.238 Y103.026 E45.50986
G0 F12000 X96.561 Y102.783
G1 F2400 X96.239 Y102.461 E45.52198
G0 F12000 X96.578 Y102.234
G1 F2400 X96.428 Y102.085 E45.5276
G0 F12000 X96.701 Y101.792
G1 F2400 X96.936 Y102.027 E45.53645
G0 F12000 X97.295 Y101.82
G1 F2400 X97.059 Y101.585 E45.54531
G0 F12000 X97.418 Y101.377
G1 F2400 X97.653 Y101.613 E45.55417
G0 F12000 X98.012 Y101.406
G1 F2400 X97.776 Y101.17 E45.56305
G0 F12000 X98.135 Y100.963
G1 F2400 X98.37 Y101.199 E45.57191
G0 F12000 X98.729 Y100.991
G1 F2400 X98.494 Y100.757 E45.58074
G0 F12000 X98.852 Y100.549
G1 F2400 X99.088 Y100.785 E45.58962
G0 F12000 X99.446 Y100.578
G1 F2400 X99.211 Y100.342 E45.59848
G0 F12000 X99.569 Y100.135
G1 F2400 X99.805 Y100.37 E45.60734
G0 F12000 X100.163 Y100.163
G1 F2400 X99.928 Y99.928 E45.61618
G0 F12000 X100.286 Y99.721
G1 F2400 X100.522 Y99.956 E45.62504
G0 F12000 X100.88 Y99.749
G1 F2400 X100.646 Y99.514 E45.63387
G0 F12000 X101.004 Y99.307
G1 F2400 X101.239 Y99.542 E45.64271
G0 F12000 X101.598 Y99.335
G1 F2400 X101.363 Y99.1 E45.65155
G0 F12000 X101.721 Y98.893
G1 F2400 X101.957 Y99.128 E45.66042
G0 F12000 X102.315 Y98.921
G1 F2400 X102.08 Y98.685 E45.66928
G0 F12000 X102.439 Y98.479
G1 F2400 X102.674 Y98.714 E45.67812
G0 F12000 X103.032 Y98.507
G1 F2400 X102.797 Y98.272 E45.68696
G0 F12000 X103.156 Y98.065
G1 F2400 X103.391 Y98.299 E45.69579
G0 F12000 X103.749 Y98.092
G1 F2400 X103.514 Y97.857 E45.70463
G0 F12000 X103.873 Y97.65
G1 F2400 X104.108 Y97.885 E45.71347
G0 F12000 X104.467 Y97.679
G1 F2400 X104.231 Y97.443 E45.72235
G0 F12000 X104.59 Y97.237
G1 F2400 X104.825 Y97.471 E45.73118
G0 F12000 X105.184 Y97.264
G1 F2400 X104.949 Y97.029 E45.74002
G0 F12000 X105.307 Y96.822
G1 F2400 X105.542 Y97.057 E45.74886
G0 F12000 X105.901 Y96.85
G1 F2400 X105.666 Y96.615 E45.75771
G0 F12000 X106.025 Y96.408
G1 F2400 X106.259 Y96.643 E45.76653
G0 F12000 X106.618 Y96.435
G1 F2400 X106.384 Y96.201 E45.77534
G0 F12000 X106.742 Y95.994
G1 F2400 X106.977 Y96.229 E45.78418
G0 F12000 X107.335 Y96.022
G1 F2400 X107.101 Y95.787 E45.793
G0 F12000 X107.459 Y95.58
G1 F2400 X107.694 Y95.815 E45.80185
G0 F12000 X108.052 Y95.607
G1 F2400 X107.818 Y95.373 E45.81065
G0 F12000 X108.176 Y95.165
G1 F2400 X108.411 Y95.4 E45.8195
G0 F12000 X108.769 Y95.193
G1 F2400 X108.535 Y94.959 E45.8283
G0 F12000 X108.894 Y94.752
G1 F2400 X109.128 Y94.986 E45.83711
G0 F12000 X109.487 Y94.779
G1 F2400 X109.252 Y94.545 E45.84593
G0 F12000 X109.611 Y94.337
G1 F2400 X109.846 Y94.572 E45.85477
G0 F12000 X110.135 Y94.296
G1 F2400 X110.765 Y94.926 E45.87848
G0 F12000 X111.226 Y94.821
G1 F2400 X112.104 Y95.699 E45.91152
G0 F12000 X112.565 Y95.594
G1 F2400 X113.442 Y96.471 E45.94452
G0 F12000 X113.903 Y96.367
G1 F2400 X114.781 Y97.244 E45.97754
G0 F12000 X115.242 Y97.14
G1 F2400 X116.119 Y98.017 E46.01054
G0 F12000 X116.58 Y97.913
G1 F2400 X117.458 Y98.79 E46.04356
G0 F12000 X117.919 Y98.685
G1 F2400 X118.796 Y99.563 E46.07658
G0 F12000 X119.257 Y99.458
G1 F2400 X120.135 Y100.336 E46.10962
G0 F12000 X120.596 Y100.231
G1 F2400 X121.473 Y101.109 E46.14264
G0 F12000 X121.934 Y101.004
G1 F2400 X122.813 Y101.882 E46.1757
G0 F12000 X123.273 Y101.777
G1 F2400 X123.539 Y102.043 E46.18571
G0 F12000 X123.438 Y102.507
G1 F2400 X123.76 Y102.83 E46.19784
G0 F12000 X123.438 Y103.073
G1 F2400 X123.76 Y103.395 E46.20996
G0 F12000 X123.438 Y103.639
G1 F2400 X123.76 Y103.961 E46.22208
G0 F12000 X123.438 Y104.204
G1 F2400 X123.76 Y104.527 E46.23421
G0 F12000 X123.438 Y104.77
G1 F2400 X123.76 Y105.093 E46.24635
G0 F12000 X123.438 Y105.336
G1 F2400 X123.76 Y105.658 E46.25846
G0 F12000 X123.438 Y105.901
G1 F2400 X123.76 Y106.224 E46.2706
G0 F12000 X123.438 Y106.467
G1 F2400 X123.76 Y106.79 E46.28273
G0 F12000 X123.438 Y107.033
G1 F2400 X123.76 Y107.355 E46.29485
G0 F12000 X123.438 Y107.599
G1 F2400 X123.76 Y107.921 E46.30697
G0 F12000 X123.438 Y108.164
G1 F2400 X123.76 Y108.487 E46.3191
G0 F12000 X123.438 Y108.73
G1 F2400 X123.76 Y109.052 E46.33122
G0 F12000 X123.438 Y109.296
G1 F2400 X123.76 Y109.618 E46.34334
G0 F12000 X123.438 Y109.861
G1 F2400 X123.76 Y110.184 E46.35547
G0 F12000 X123.438 Y110.427
G1 F2400 X123.76 Y110.749 E46.36759
G0 F12000 X123.438 Y110.993
G1 F2400 X123.76 Y111.315 E46.37971
G0 F12000 X123.438 Y111.558
G1 F2400 X123.76 Y111.881 E46.39184
G0 F12000 X123.438 Y112.124
G1 F2400 X123.76 Y112.446 E46.40396
G0 F12000 X123.438 Y112.69
G1 F2400 X123.76 Y113.012 E46.41607
G0 F12000 X123.438 Y113.255
G1 F2400 X123.76 Y113.578 E46.42821
G0 F12000 X123.438 Y113.821
G1 F2400 X123.76 Y114.144 E46.44035
G0 F12000 X123.438 Y114.387
G1 F2400 X123.76 Y114.709 E46.45246
G0 F12000 X123.438 Y114.952
G1 F2400 X123.76 Y115.275 E46.4646
G0 F12000 X123.438 Y115.518
G1 F2400 X123.76 Y115.841 E46.47673
G0 F12000 X123.438 Y116.084
G1 F2400 X123.76 Y116.406 E46.48885
G0 F12000 X123.438 Y116.649
G1 F2400 X123.76 Y116.972 E46.50099
G0 F12000 X123.438 Y117.215
G1 F2400 X123.759 Y117.537 E46.51308
G0 F12000 X123.426 Y117.769
G1 F2400 X123.569 Y117.912 E46.51846
G0 F12000 X123.301 Y118.21
